X:1
T: Harry's Jig
C:Gordy Euler
R:Jig
Q: 180
K:A
M:6/8
L:1/16
|:a2e2a2 g2f2g2|a4e2 e2d2c2|d2B2d2 c2A2c2|^d2B2d2 e2f2g2|
a2e2a2 g2f2g2|a4e2 e2d2c2|B2d2f2 e2a2c2|d2B2e2 A6:|
|:b2e2b2 a2e2a2|f2d2f2 e2c2A2|d2e2f2 e2c2e2|f2g2a2 g4a2|
b2e2b2 a2e2a2|f2d2f2 e2c2A2|B2d2f2 e2a2c2|d2B2e2 A6:|
